icons/applescript.svg

<svg version="1.1" viewBox="0 0 24 24" xmlns="http://www.w3.org/2000/svg">
<path d="m18.733 19.499c-.83 1.24-1.71 2.45-3.05 2.47-1.34.03-1.77-.79-3.29-.79-1.53 0-2 .77-3.27.82-1.31.05-2.3-1.32-3.14-2.53-1.71-2.47-3.02-7.02-1.26-10.08.87-1.52 2.43-2.48 4.12-2.51 1.28-.02 2.5.87 3.29.87.78 0 2.26-1.07 3.81-.91.65.03 2.47.26 3.64 1.98-.09.06-2.17 1.28-2.15 3.81.03 3.02 2.65 4.03 2.68 4.04-.03.07-.42 1.44-1.38 2.83m-5.71-16c.73-.83 1.94-1.46 2.94-1.5.13 1.17-.34 2.35-1.04 3.19-.69.85-1.83 1.51-2.95 1.42-.15-1.15.41-2.35 1.05-3.11z" fill="#78909c"/>
</svg>

<?xml version="1.0" encoding="UTF-8" standalone="no"?>
<svg
   xmlns:dc="http://purl.org/dc/elements/1.1/"
   xmlns:cc="http://creativecommons.org/ns#"
   xmlns:rdf="http://www.w3.org/1999/02/22-rdf-syntax-ns#"
   xmlns:svg="http://www.w3.org/2000/svg"
   xmlns="http://www.w3.org/2000/svg"
   xmlns:sodipodi="http://sodipodi.sourceforge.net/DTD/sodipodi-0.dtd"
   xmlns:inkscape="http://www.inkscape.org/namespaces/inkscape"
   version="1.1"
   width="24"
   height="24"
   viewBox="0 0 24 24"
   id="svg4"
   sodipodi:docname="applescript.svg"
   inkscape:version="0.92.1 r15371">
  <metadata
     id="metadata10">
    <rdf:RDF>
      <cc:Work
         rdf:about="">
        <dc:format>image/svg+xml</dc:format>
        <dc:type
           rdf:resource="http://purl.org/dc/dcmitype/StillImage" />
      </cc:Work>
    </rdf:RDF>
  </metadata>
  <defs
     id="defs8" />
  <sodipodi:namedview
     pagecolor="#ffffff"
     bordercolor="#666666"
     borderopacity="1"
     objecttolerance="10"
     gridtolerance="10"
     guidetolerance="10"
     inkscape:pageopacity="0"
     inkscape:pageshadow="2"
     inkscape:window-width="1366"
     inkscape:window-height="705"
     id="namedview6"
     showgrid="false"
     inkscape:zoom="9.8333333"
     inkscape:cx="12"
     inkscape:cy="12"
     inkscape:window-x="-8"
     inkscape:window-y="-8"
     inkscape:window-maximized="1"
     inkscape:current-layer="svg4" />
  <path
     d="M18.71,19.5C17.88,20.74 17,21.95 15.66,21.97C14.32,22 13.89,21.18 12.37,21.18C10.84,21.18 10.37,21.95 9.1,22C7.79,22.05 6.8,20.68 5.96,19.47C4.25,17 2.94,12.45 4.7,9.39C5.57,7.87 7.13,6.91 8.82,6.88C10.1,6.86 11.32,7.75 12.11,7.75C12.89,7.75 14.37,6.68 15.92,6.84C16.57,6.87 18.39,7.1 19.56,8.82C19.47,8.88 17.39,10.1 17.41,12.63C17.44,15.65 20.06,16.66 20.09,16.67C20.06,16.74 19.67,18.11 18.71,19.5M13,3.5C13.73,2.67 14.94,2.04 15.94,2C16.07,3.17 15.6,4.35 14.9,5.19C14.21,6.04 13.07,6.7 11.95,6.61C11.8,5.46 12.36,4.26 13,3.5Z"
     id="path2"
     style="fill:#78909c;fill-opacity:1" />
</svg>
